svgs/jiosaavn.svg

<svg xmlns="http://www.w3.org/2000/svg" viewBox="0 0 192 192"><path d="M166.905 16.5H25.095a8.6 8.6 0 0 0-7.444 4.297 8.6 8.6 0 0 0-1.151 4.298v141.81c0 2.279.906 4.467 2.517 6.078a8.599 8.599 0 0 0 6.078 2.517h141.81a8.6 8.6 0 0 0 7.444-4.297 8.6 8.6 0 0 0 1.151-4.298V25.095a8.6 8.6 0 0 0-4.297-7.444 8.6 8.6 0 0 0-4.298-1.151Z" fill="none" stroke="#000" stroke-width="8" stroke-linecap="round" stroke-linejoin="round"/><path d="M16.5 129.734c19.596-12.892 63.428 4.641 64.76 45.766 0 0 6.016-101.803-64.76-101.803" fill="none" stroke="#000" stroke-width="8" stroke-linecap="round" stroke-linejoin="round"/><path d="M104.595 16.5c16.888 65.921 3.223 104.983-15.514 134.548C90.886 109.837 56.551 34.463 43.874 16.5" fill="none" stroke="#000" stroke-width="8" stroke-linecap="round" stroke-linejoin="round"/><path d="M175.5 111.298c-18.779.86-52.298 19.51-68.757 64.202 0-53.759 9.583-80.445 68.757-101.803" fill="none" stroke="#000" stroke-width="8" stroke-linecap="round" stroke-linejoin="round"/></svg>

<svg
    xmlns="http://www.w3.org/2000/svg"
    viewBox="0 0 192 192"
    id="vector">
    <path
        id="path"
        d="M 166.905 16.5 L 25.095 16.5 C 23.586 16.5 22.104 16.897 20.797 17.651 C 19.491 18.406 18.406 19.491 17.651 20.797 C 16.897 22.104 16.5 23.586 16.5 25.095 L 16.5 166.905 C 16.5 169.184 17.406 171.372 19.017 172.983 C 20.628 174.594 22.816 175.5 25.095 175.5 L 166.905 175.5 C 168.414 175.5 169.896 175.103 171.203 174.349 C 172.509 173.594 173.594 172.509 174.349 171.203 C 175.103 169.896 175.5 168.414 175.5 166.905 L 175.5 25.095 C 175.5 23.586 175.103 22.104 174.349 20.797 C 173.594 19.491 172.509 18.406 171.203 17.651 C 169.896 16.897 168.414 16.5 166.905 16.5 Z"
        fill="none"
        stroke="#000000"
        stroke-width="8"
        stroke-linecap="round"
        stroke-linejoin="round"/>
    <path
        id="path_1"
        d="M 16.5 129.734 C 36.096 116.842 79.928 134.375 81.26 175.5 C 81.26 175.5 87.276 73.697 16.5 73.697"
        fill="none"
        stroke="#000000"
        stroke-width="8"
        stroke-linecap="round"
        stroke-linejoin="round"/>
    <path
        id="path_2"
        d="M 104.595 16.5 C 121.483 82.421 107.818 121.483 89.081 151.048 C 90.886 109.837 56.551 34.463 43.874 16.5"
        fill="none"
        stroke="#000000"
        stroke-width="8"
        stroke-linecap="round"
        stroke-linejoin="round"/>
    <path
        id="path_3"
        d="M 175.5 111.298 C 156.721 112.158 123.202 130.808 106.743 175.5 C 106.743 121.741 116.326 95.055 175.5 73.697"
        fill="none"
        stroke="#000000"
        stroke-width="8"
        stroke-linecap="round"
        stroke-linejoin="round"/>
</svg>
